!!!OTL: ICH LEBTE SONST SO FROH UND FREI
!!!ARE: Europa, Mitteleuropa, Deutschland, Gransee, Roennebeck
!!!SCT: E0736
!!!YEM: Copyright 1995, estate of Helmut Schaffrath.
**kern
*ICvox
*Ivox
*M4/4
*k[f#]
*G:
{4d
=1
4g
4g
4a
4a
=2
4b
4b
4a
4r}
=3
{4cc
4a
4.b
8g
=4
4.a
8g
4f#}
{8g
8f#
=5
4e
4e
4g
4e
=6
4d
4d
4b}
{4a
=7
8b
8g
4f#
8g
8f#
4e
=8
2e
4d}
{8g
8f#
=9
4e
4e
4g
4e
=10
4d
4d
4b}
{4a
=11
8b
8g
4f#
8g
8f#
4e
=12
2e
4d}
==
!!!AGN: Liebes - Lied, Leid, Klage, Tod
!!!ONB: ESAC (Essen Associative Code) Database: ERK2
!!!AMT: simple quadruple
!!!AIN: vox
!!!EED: Helmut Schaffrath
!!!EEV: 1.0
*-
